X: 38
T:Kilt is My Delight, The
M:4/4
L:1/8
R:Reel
K:D
dB|"D"A2 AB ABdf|"A"edef edBd|"D"A2 AB ABdf|"A"edef "D"d2 Bd|!
"D"A2 AB ABdf|"A"edef edBd|"D"A2 AB ABdf|"A"edef "D"d2 ef|!
"G"g2 ag "D"f2 af|"A"edef edBd|"G"g2 ag "D"f2 af|"A"edef "D"a3 f|!
"G"g2 ag "D"f2 af|"A"edef edBd|"D"A/A/A AB ABdf|"A"edef "D"d2||
